src/assets/card/jungle-empty.svg

<svg width="100" height="130" viewBox="0 0 100 130" fill="none" xmlns="http://www.w3.org/2000/svg">
<g id="jungle-empty">
<g id="Rectangle 213" filter="url(#filter0_b_965_14725)">
<mask id="path-1-inside-1_965_14725" fill="white">
<path d="M12 4H88V130H12V4Z"/>
</mask>
<path d="M12 4H88V130H12V4Z" fill="url(#paint0_linear_965_14725)" fill-opacity="0.2"/>
<path d="M12 4V3.34148H11.3415V4H12ZM88 4H88.6585V3.34148H88V4ZM12 4.65852H88V3.34148H12V4.65852ZM87.3415 4V130H88.6585V4H87.3415ZM12.6585 130V4H11.3415V130H12.6585Z" fill="url(#paint1_linear_965_14725)" mask="url(#path-1-inside-1_965_14725)"/>
</g>
<rect id="Rectangle 214" x="12" y="4.00009" width="76" height="3" fill="url(#paint2_linear_965_14725)"/>
<g id="Group 221">
<path id="Vector 145" d="M100 101L76.0491 130H80.0002L100 104.951V101Z" fill="url(#paint3_linear_965_14725)"/>
<path id="Vector 146" d="M99 109.178L82 130H84.8222L99 112V109.178Z" fill="url(#paint4_linear_965_14725)"/>
<path id="Vector 149 (Stroke)" fill-rule="evenodd" clip-rule="evenodd" d="M91 107V10H91.5V107L73.5 130H73L91 107Z" fill="url(#paint5_linear_965_14725)"/>
<path id="Vector 150 (Stroke)" opacity="0.5" fill-rule="evenodd" clip-rule="evenodd" d="M93.8353 19.0682L84.8835 10.1164L85.1164 9.88358L94.1646 18.9318V105H93.8353V19.0682Z" fill="url(#paint6_linear_965_14725)"/>
<path id="Vector 153" opacity="0.3" d="M100 4H91V9H95V22H100V4Z" fill="url(#paint7_linear_965_14725)"/>
</g>
<g id="Group 222">
<path id="Vector 145_2" d="M0 101L23.9509 130H19.9998L0 104.951V101Z" fill="url(#paint8_linear_965_14725)"/>
<path id="Vector 146_2" d="M1 109.178L18 130H15.1778L1 112V109.178Z" fill="url(#paint9_linear_965_14725)"/>
<path id="Vector 149 (Stroke)_2" fill-rule="evenodd" clip-rule="evenodd" d="M9 107V10H8.5V107L26.5 130H27L9 107Z" fill="url(#paint10_linear_965_14725)"/>
<path id="Vector 150 (Stroke)_2" opacity="0.5" fill-rule="evenodd" clip-rule="evenodd" d="M6.16461 19.0682L15.1164 10.1164L14.8836 9.88358L5.83535 18.9318V105H6.16461V19.0682Z" fill="url(#paint11_linear_965_14725)"/>
<path id="Vector 153_2" opacity="0.3" d="M0 4H9V9H5V22H0V4Z" fill="url(#paint12_linear_965_14725)"/>
</g>
<g id="diamond">
<path id="Polygon 38" d="M50 0L53 6L50 10L47 6L50 0Z" fill="#AB750F"/>
<path id="Vector 108" d="M47 6L50 0V10L47 6Z" fill="#FFC502"/>
<path id="highlight" d="M49.9621 1.27928L53 5.99994L50 3.19481e-05C48.8284 2.34314 48.1716 3.65683 47 5.99994L49.9621 1.27928Z" fill="white" fill-opacity="0.3"/>
</g>
<g id="icon-jungle" clip-path="url(#clip0_965_14725)">
<path id="JUNGLE" d="M42.2789 116.038C42.1074 116.038 41.9487 116.005 41.8027 115.939C41.6594 115.872 41.5416 115.776 41.4495 115.651L41.7336 115.309C41.8079 115.411 41.8885 115.488 41.9755 115.539C42.0651 115.59 42.1624 115.616 42.2674 115.616C42.5464 115.616 42.6859 115.451 42.6859 115.121V113.731H41.7298V113.312H43.1851V115.094C43.1851 115.411 43.1071 115.648 42.9509 115.804C42.7973 115.96 42.5733 116.038 42.2789 116.038ZM45.0412 116.038C44.6725 116.038 44.3833 115.935 44.1733 115.727C43.966 115.52 43.8623 115.22 43.8623 114.829V113.312H44.3615V114.81C44.3615 115.086 44.4204 115.287 44.5381 115.412C44.6585 115.538 44.8274 115.601 45.045 115.601C45.2626 115.601 45.4303 115.538 45.5481 115.412C45.6658 115.287 45.7247 115.086 45.7247 114.81V113.312H46.2162V114.829C46.2162 115.22 46.1113 115.52 45.9013 115.727C45.694 115.935 45.4073 116.038 45.0412 116.038ZM46.9153 116V113.312H47.3262L49.012 115.382H48.8085V113.312H49.3038V116H48.8929L47.2072 113.93H47.4107V116H46.9153ZM51.2798 116.038C51.0698 116.038 50.8766 116.005 50.6999 115.939C50.5258 115.869 50.3735 115.773 50.243 115.651C50.1124 115.525 50.0113 115.378 49.9396 115.209C49.8679 115.04 49.8321 114.856 49.8321 114.656C49.8321 114.456 49.8679 114.272 49.9396 114.103C50.0113 113.934 50.1124 113.788 50.243 113.665C50.3761 113.54 50.531 113.444 50.7076 113.377C50.8842 113.308 51.0775 113.274 51.2874 113.274C51.5153 113.274 51.7201 113.311 51.9018 113.385C52.0862 113.459 52.241 113.568 52.3665 113.711L52.0516 114.019C51.9466 113.914 51.8327 113.837 51.7098 113.788C51.5895 113.737 51.4564 113.711 51.3105 113.711C51.1697 113.711 51.0391 113.734 50.9188 113.78C50.7985 113.827 50.6948 113.892 50.6078 113.976C50.5207 114.061 50.4529 114.161 50.4042 114.276C50.3582 114.391 50.3351 114.518 50.3351 114.656C50.3351 114.792 50.3582 114.917 50.4042 115.032C50.4529 115.148 50.5207 115.249 50.6078 115.336C50.6948 115.42 50.7972 115.485 50.915 115.532C51.0327 115.578 51.1633 115.601 51.3066 115.601C51.4398 115.601 51.5678 115.58 51.6906 115.539C51.8161 115.496 51.9351 115.424 52.0478 115.324L52.3319 115.697C52.1911 115.809 52.0273 115.895 51.8404 115.954C51.6561 116.01 51.4692 116.038 51.2798 116.038ZM51.8596 115.631V114.625H52.3319V115.697L51.8596 115.631ZM52.9903 116V113.312H53.4895V115.578H54.895V116H52.9903ZM55.7499 114.429H57.0862V114.84H55.7499V114.429ZM55.7883 115.581H57.3051V116H55.2891V113.312H57.2513V113.731H55.7883V115.581Z" fill="url(#paint13_linear_965_14725)"/>
<g id="Jungle" clip-path="url(#clip1_965_14725)">
<path id="Subtract" fill-rule="evenodd" clip-rule="evenodd" d="M49.4071 100H55.2001L52.8606 103.138C52.8606 103.138 52.2618 104.022 52.8606 104.697C53.4594 105.371 53.8818 105.816 53.8818 105.816L53.8261 107.824L52.6193 108.85V109.958H49.9944L49.6182 109.534C49.6182 109.534 52.5192 108.632 51.4692 107.449C50.4192 106.266 48.3488 106.737 48.3488 106.737L47.8475 107.866L48.5716 107.929L49.0358 108.64H46.8448L46.26 109.299L47.1419 110.293H48.0032L48.2502 110.015V110.9L47.9837 111.2H45.8038L44.0001 109.168L44.5648 108.531C45.0953 108.062 45.6495 107.302 46.0858 106.634C46.3321 106.256 46.542 105.906 46.6903 105.65C46.7645 105.523 46.8233 105.418 46.8636 105.346C46.8837 105.31 46.8992 105.281 46.9097 105.262L46.9216 105.24L46.9247 105.235L46.9255 105.233L46.9257 105.233L46.9257 105.233L46.8819 105.209L46.8382 105.186L46.8381 105.186L46.8379 105.186L46.8372 105.188L46.8342 105.193L46.8225 105.215C46.8121 105.234 46.7967 105.262 46.7767 105.298C46.7367 105.37 46.6782 105.473 46.6044 105.601C46.4567 105.855 46.2477 106.204 46.0026 106.579C45.5705 107.241 45.0296 107.981 44.5163 108.442H44.2825L44.3754 107.322L44.0001 106.841L44.7298 106.343C44.9954 106.214 45.2416 106.038 45.4298 105.885C45.5418 105.793 45.6339 105.71 45.6981 105.65C45.7302 105.62 45.7553 105.595 45.7725 105.578L45.7921 105.558L45.7973 105.553L45.7986 105.552L45.799 105.551L45.7991 105.551L45.7991 105.551L45.7632 105.517L45.7274 105.482L45.7274 105.482L45.7273 105.482L45.7271 105.483L45.7259 105.484L45.7212 105.489L45.7024 105.507C45.6858 105.524 45.6613 105.548 45.63 105.577C45.5672 105.637 45.4769 105.718 45.3671 105.807C45.223 105.925 45.0464 106.054 44.8551 106.164L44.821 105.147H45.1738V103.975H46.2135V103.557H47.1419L49.1932 101.245L49.4071 100Z" fill="url(#paint14_linear_965_14725)"/>
</g>
</g>
<g id="add" clip-path="url(#clip2_965_14725)">
<g id="Group 332">
<rect id="Rectangle 414" x="36.4001" y="70.6675" width="27.2" height="27.2" rx="13.6" transform="rotate(-90 36.4001 70.6675)" fill="url(#paint15_linear_965_14725)"/>
<path id="Rectangle 416 (Stroke)" fill-rule="evenodd" clip-rule="evenodd" d="M49.9263 72.1263C58.321 72.1263 65.1263 65.321 65.1263 56.9263C65.1263 48.5315 58.321 41.7263 49.9263 41.7263C41.5315 41.7263 34.7263 48.5315 34.7263 56.9263C34.7263 65.321 41.5315 72.1263 49.9263 72.1263ZM33.9263 56.9263C33.9263 65.7628 41.0897 72.9263 49.9263 72.9263C58.7628 72.9263 65.9263 65.7628 65.9263 56.9263C65.9263 48.0897 58.7628 40.9263 49.9263 40.9263C41.0897 40.9263 33.9263 48.0897 33.9263 56.9263Z" fill="url(#paint16_linear_965_14725)"/>
<g id="Group 264">
<path id="Union" fill-rule="evenodd" clip-rule="evenodd" d="M50 49.8C51.193 49.8 52.16 50.7671 52.16 51.96V54.84H55.04C56.233 54.84 57.2 55.8071 57.2 57C57.2 58.193 56.233 59.16 55.04 59.16H52.16V62.04C52.16 63.233 51.193 64.2 50 64.2C48.8071 64.2 47.84 63.233 47.84 62.04V59.16H44.96C43.7671 59.16 42.8 58.193 42.8 57C42.8 55.8071 43.7671 54.84 44.96 54.84H47.84V51.96C47.84 50.7671 48.8071 49.8 50 49.8Z" fill="#F5F1EE"/>
</g>
</g>
</g>
</g>
<defs>
<filter id="filter0_b_965_14725" x="7.45139" y="-0.548611" width="85.0972" height="135.097" filterUnits="userSpaceOnUse" color-interpolation-filters="sRGB">
<feFlood flood-opacity="0" result="BackgroundImageFix"/>
<feGaussianBlur in="BackgroundImageFix" stdDeviation="2.27431"/>
<feComposite in2="SourceAlpha" operator="in" result="effect1_backgroundBlur_965_14725"/>
<feBlend mode="normal" in="SourceGraphic" in2="effect1_backgroundBlur_965_14725" result="shape"/>
</filter>
<linearGradient id="paint0_linear_965_14725" x1="50" y1="4" x2="50" y2="130" gradientUnits="userSpaceOnUse">
<stop stop-color="#AB750F"/>
<stop offset="1" stop-color="#997601" stop-opacity="0"/>
</linearGradient>
<linearGradient id="paint1_linear_965_14725" x1="50" y1="4" x2="50" y2="142.866" gradientUnits="userSpaceOnUse">
<stop stop-color="#D1A14A"/>
<stop offset="1" stop-color="#D1A14A" stop-opacity="0"/>
</linearGradient>
<linearGradient id="paint2_linear_965_14725" x1="8.44715" y1="5.5001" x2="89.3902" y2="5.50013" gradientUnits="userSpaceOnUse">
<stop stop-color="#AB750F"/>
<stop offset="0.516" stop-color="#D8A956"/>
<stop offset="1" stop-color="#AB750F"/>
</linearGradient>
<linearGradient id="paint3_linear_965_14725" x1="74.9294" y1="115.5" x2="100.438" y2="115.5" gradientUnits="userSpaceOnUse">
<stop stop-color="#AB750F"/>
<stop offset="0.516" stop-color="#D8A956"/>
<stop offset="1" stop-color="#AB750F"/>
</linearGradient>
<linearGradient id="paint4_linear_965_14725" x1="81.2053" y1="119.589" x2="99.311" y2="119.589" gradientUnits="userSpaceOnUse">
<stop stop-color="#AB750F"/>
<stop offset="0.516" stop-color="#D8A956"/>
<stop offset="1" stop-color="#AB750F"/>
</linearGradient>
<linearGradient id="paint5_linear_965_14725" x1="72.1352" y1="70.0005" x2="91.8384" y2="70.0005" gradientUnits="userSpaceOnUse">
<stop stop-color="#AB750F"/>
<stop offset="0.516" stop-color="#D8A956"/>
<stop offset="1" stop-color="#AB750F"/>
</linearGradient>
<linearGradient id="paint6_linear_965_14725" x1="89.5241" y1="9.88358" x2="89.5241" y2="105" gradientUnits="userSpaceOnUse">
<stop stop-color="#AB750F"/>
<stop offset="0.516" stop-color="#D8A956"/>
<stop offset="1" stop-color="#AB750F"/>
</linearGradient>
<linearGradient id="paint7_linear_965_14725" x1="95.5" y1="4" x2="95.5" y2="22" gradientUnits="userSpaceOnUse">
<stop stop-color="#AB750F"/>
<stop offset="0.516" stop-color="#D8A956"/>
<stop offset="1" stop-color="#AB750F"/>
</linearGradient>
<linearGradient id="paint8_linear_965_14725" x1="25.0706" y1="115.5" x2="-0.438125" y2="115.5" gradientUnits="userSpaceOnUse">
<stop stop-color="#AB750F"/>
<stop offset="0.516" stop-color="#D8A956"/>
<stop offset="1" stop-color="#AB750F"/>
</linearGradient>
<linearGradient id="paint9_linear_965_14725" x1="18.7947" y1="119.589" x2="0.689025" y2="119.589" gradientUnits="userSpaceOnUse">
<stop stop-color="#AB750F"/>
<stop offset="0.516" stop-color="#D8A956"/>
<stop offset="1" stop-color="#AB750F"/>
</linearGradient>
<linearGradient id="paint10_linear_965_14725" x1="27.8648" y1="70.0005" x2="8.16159" y2="70.0005" gradientUnits="userSpaceOnUse">
<stop stop-color="#AB750F"/>
<stop offset="0.516" stop-color="#D8A956"/>
<stop offset="1" stop-color="#AB750F"/>
</linearGradient>
<linearGradient id="paint11_linear_965_14725" x1="10.4759" y1="9.88358" x2="10.4759" y2="105" gradientUnits="userSpaceOnUse">
<stop stop-color="#AB750F"/>
<stop offset="0.516" stop-color="#D8A956"/>
<stop offset="1" stop-color="#AB750F"/>
</linearGradient>
<linearGradient id="paint12_linear_965_14725" x1="4.5" y1="4" x2="4.5" y2="22" gradientUnits="userSpaceOnUse">
<stop stop-color="#AB750F"/>
<stop offset="0.516" stop-color="#D8A956"/>
<stop offset="1" stop-color="#AB750F"/>
</linearGradient>
<linearGradient id="paint13_linear_965_14725" x1="40.2053" y1="114.5" x2="58.311" y2="114.5" gradientUnits="userSpaceOnUse">
<stop stop-color="#AB750F"/>
<stop offset="0.516" stop-color="#D8A956"/>
<stop offset="1" stop-color="#AB750F"/>
</linearGradient>
<linearGradient id="paint14_linear_965_14725" x1="43.4765" y1="105.6" x2="55.405" y2="105.6" gradientUnits="userSpaceOnUse">
<stop stop-color="#AB750F"/>
<stop offset="0.516" stop-color="#D8A956"/>
<stop offset="1" stop-color="#AB750F"/>
</linearGradient>
<linearGradient id="paint15_linear_965_14725" x1="69.5638" y1="81.2186" x2="35.4913" y2="81.5663" gradientUnits="userSpaceOnUse">
<stop stop-color="#AB750F"/>
<stop offset="0.237787" stop-color="#D8A956"/>
<stop offset="1" stop-color="#AB750F"/>
</linearGradient>
<linearGradient id="paint16_linear_965_14725" x1="49.9264" y1="74.4222" x2="49.9264" y2="40.3409" gradientUnits="userSpaceOnUse">
<stop stop-color="#AB750F"/>
<stop offset="0.516" stop-color="#D8A956"/>
<stop offset="1" stop-color="#AB750F"/>
</linearGradient>
<clipPath id="clip0_965_14725">
<rect width="16" height="16" fill="white" transform="translate(42 100)"/>
</clipPath>
<clipPath id="clip1_965_14725">
<rect width="11.2" height="11.2" fill="white" transform="translate(44.0001 100)"/>
</clipPath>
<clipPath id="clip2_965_14725">
<rect width="32" height="32" fill="white" transform="translate(34 41)"/>
</clipPath>
</defs>
</svg>

<svg xmlns="http://www.w3.org/2000/svg" width="100" height="130" fill="none" xmlns:v="https://vecta.io/nano"><mask id="A" fill="#fff"><path d="M12 4H88V130H12V4Z"/></mask><path d="M12 4H88V130H12V4Z" fill="url(#B)" fill-opacity=".2"/><path d="M12 4v-.659h-.659V4H12zm76 0h.659v-.659H88V4zm-76 .659h76V3.341H12v1.317zM87.342 4v126h1.317V4h-1.317zM12.659 130V4h-1.317v126h1.317z" fill="url(#C)" mask="url(#A)"/><path fill="url(#D)" d="M12 4h76v3H12z"/><path d="M100 101l-23.951 29H80l20-25.049V101z" fill="url(#E)"/><path d="M99 109.178L82 130h2.822L99 112v-2.822z" fill="url(#F)"/><g fill-rule="evenodd"><path d="M91 107V10h.5v97l-18 23H73l18-23z" fill="url(#G)"/><path opacity=".5" d="M93.835 19.068l-8.952-8.952.233-.233 9.048 9.048V105h-.329V19.068z" fill="url(#H)"/></g><path opacity=".3" d="M100 4h-9v5h4v13h5V4z" fill="url(#I)"/><path d="M0 101l23.951 29H20L0 104.951V101z" fill="url(#J)"/><path d="M1 109.178L18 130h-2.822L1 112v-2.822z" fill="url(#K)"/><g fill-rule="evenodd"><path d="M9 107V10h-.5v97l18 23h.5L9 107z" fill="url(#L)"/><path opacity=".5" d="M6.165 19.068l8.952-8.952-.233-.233-9.048 9.048V105h.329V19.068z" fill="url(#M)"/></g><path opacity=".3" d="M0 4H9V9H5V22H0V4Z" fill="url(#N)"/><path d="M50 0l3 6-3 4-3-4 3-6z" fill="#ab750f"/><path d="M47 6l3-6v10l-3-4z" fill="#ffc502"/><path d="M49.962 1.279L53 6l-3-6-3 6 2.962-4.721z" fill="#fff" fill-opacity=".3"/><g clip-path="url(#S)"><path d="M42.279 116.038c-.172 0-.33-.033-.476-.099a.91.91 0 0 1-.353-.288l.284-.342a.82.82 0 0 0 .242.23.58.58 0 0 0 .292.077c.279 0 .418-.165.418-.495v-1.39h-.956v-.419h1.455v1.782c0 .317-.078.554-.234.71s-.378.234-.672.234zm2.762 0c-.369 0-.658-.103-.868-.311s-.311-.507-.311-.898v-1.517h.499v1.498c0 .276.059.477.177.602s.289.189.507.189.385-.063.503-.189.177-.326.177-.602v-1.498h.492v1.517c0 .391-.105.691-.315.898s-.494.311-.86.311zm1.874-.038v-2.688h.411l1.686 2.07h-.203v-2.07h.495V116h-.411l-1.686-2.07h.203V116h-.495zm4.365.038c-.21 0-.403-.033-.58-.099a1.46 1.46 0 0 1-.457-.288 1.33 1.33 0 0 1-.303-.442 1.4 1.4 0 0 1-.108-.553 1.4 1.4 0 0 1 .108-.553 1.28 1.28 0 0 1 .303-.438c.133-.125.288-.221.465-.288a1.58 1.58 0 0 1 .58-.103c.228 0 .433.037.614.111s.339.183.465.326l-.315.308c-.105-.105-.219-.182-.342-.231s-.253-.077-.399-.077c-.141 0-.271.023-.392.069s-.224.112-.311.196a.91.91 0 0 0-.204.3c-.046.115-.069.242-.069.38a1 1 0 0 0 .069.376.94.94 0 0 0 .204.304c.087.084.189.149.307.196s.248.069.392.069c.133 0 .261-.021.384-.062s.244-.115.357-.215l.284.373c-.141.112-.305.198-.491.257a1.92 1.92 0 0 1-.561.084zm.58-.407v-1.006h.472v1.072l-.472-.066zm1.131.369v-2.688h.499v2.266h1.406V116H52.99zm2.76-1.571h1.336v.411H55.75v-.411zm.038 1.152h1.517V116h-2.016v-2.688h1.962v.419h-1.463v1.85z" fill="url(#O)"/><g clip-path="url(#T)"><path fill-rule="evenodd" d="M49.407 100H55.2l-2.34 3.138s-.599.884 0 1.559l1.021 1.119-.056 2.008-1.207 1.026v1.108h-2.625l-.376-.424s2.901-.902 1.851-2.085-3.12-.712-3.12-.712l-.501 1.129.724.063.464.711h-2.191l-.585.659.882.994h.861l.247-.278v.885l-.267.3h-2.18L44 109.168l.565-.637c.531-.469 1.085-1.229 1.521-1.897l.605-.984.173-.304.046-.084.012-.022.003-.005.001-.002h0 0l-.044-.024-.044-.023h0 0l-.001.002-.003.005-.012.022-.046.083-.172.303-.602.978c-.432.662-.973 1.402-1.486 1.863h-.234l.093-1.12-.375-.481.73-.498c.266-.129.512-.305.7-.458l.268-.235.074-.072.02-.02.005-.005.001-.001v-.001h0 0l-.036-.034-.036-.035h0 0v.001l-.001.001-.005.005-.019.018-.072.07-.263.23a3.87 3.87 0 0 1-.512.357l-.034-1.017h.353v-1.172h1.04v-.418h.928l2.051-2.312.214-1.245z" fill="url(#P)"/></g></g><g clip-path="url(#U)"><rect x="36.4" y="70.668" width="27.2" height="27.2" rx="13.6" transform="rotate(270 36.4 70.668)" fill="url(#Q)"/><g fill-rule="evenodd"><path d="M49.926 72.126c8.395 0 15.2-6.805 15.2-15.2s-6.805-15.2-15.2-15.2-15.2 6.805-15.2 15.2 6.805 15.2 15.2 15.2zm-16-15.2c0 8.837 7.163 16 16 16s16-7.163 16-16-7.163-16-16-16-16 7.163-16 16z" fill="url(#R)"/><path d="M50 49.8a2.16 2.16 0 0 1 2.16 2.16v2.88h2.88a2.16 2.16 0 0 1 0 4.32h-2.88v2.88a2.16 2.16 0 1 1-4.32 0v-2.88h-2.88a2.16 2.16 0 0 1 0-4.32h2.88v-2.88A2.16 2.16 0 0 1 50 49.8z" fill="#f5f1ee"/></g></g><defs><linearGradient id="B" x1="50" y1="4" x2="50" y2="130" href="#V"><stop stop-color="#ab750f"/><stop offset="1" stop-color="#997601" stop-opacity="0"/></linearGradient><linearGradient id="C" x1="50" y1="4" x2="50" y2="142.866" href="#V"><stop stop-color="#d1a14a"/><stop offset="1" stop-color="#d1a14a" stop-opacity="0"/></linearGradient><linearGradient id="D" x1="8.447" y1="5.5" x2="89.39" y2="5.5" href="#V"><stop stop-color="#ab750f"/><stop offset=".516" stop-color="#d8a956"/><stop offset="1" stop-color="#ab750f"/></linearGradient><linearGradient id="E" x1="74.929" y1="115.5" x2="100.438" y2="115.5" href="#V"><stop stop-color="#ab750f"/><stop offset=".516" stop-color="#d8a956"/><stop offset="1" stop-color="#ab750f"/></linearGradient><linearGradient id="F" x1="81.205" y1="119.589" x2="99.311" y2="119.589" href="#V"><stop stop-color="#ab750f"/><stop offset=".516" stop-color="#d8a956"/><stop offset="1" stop-color="#ab750f"/></linearGradient><linearGradient id="G" x1="72.135" y1="70.001" x2="91.838" y2="70.001" href="#V"><stop stop-color="#ab750f"/><stop offset=".516" stop-color="#d8a956"/><stop offset="1" stop-color="#ab750f"/></linearGradient><linearGradient id="H" x1="89.524" y1="9.884" x2="89.524" y2="105" href="#V"><stop stop-color="#ab750f"/><stop offset=".516" stop-color="#d8a956"/><stop offset="1" stop-color="#ab750f"/></linearGradient><linearGradient id="I" x1="95.5" y1="4" x2="95.5" y2="22" href="#V"><stop stop-color="#ab750f"/><stop offset=".516" stop-color="#d8a956"/><stop offset="1" stop-color="#ab750f"/></linearGradient><linearGradient id="J" x1="25.071" y1="115.5" x2="-.438" y2="115.5" href="#V"><stop stop-color="#ab750f"/><stop offset=".516" stop-color="#d8a956"/><stop offset="1" stop-color="#ab750f"/></linearGradient><linearGradient id="K" x1="18.795" y1="119.589" x2=".689" y2="119.589" href="#V"><stop stop-color="#ab750f"/><stop offset=".516" stop-color="#d8a956"/><stop offset="1" stop-color="#ab750f"/></linearGradient><linearGradient id="L" x1="27.865" y1="70.001" x2="8.162" y2="70.001" href="#V"><stop stop-color="#ab750f"/><stop offset=".516" stop-color="#d8a956"/><stop offset="1" stop-color="#ab750f"/></linearGradient><linearGradient id="M" x1="10.476" y1="9.884" x2="10.476" y2="105" href="#V"><stop stop-color="#ab750f"/><stop offset=".516" stop-color="#d8a956"/><stop offset="1" stop-color="#ab750f"/></linearGradient><linearGradient id="N" x1="4.5" y1="4" x2="4.5" y2="22" href="#V"><stop stop-color="#ab750f"/><stop offset=".516" stop-color="#d8a956"/><stop offset="1" stop-color="#ab750f"/></linearGradient><linearGradient id="O" x1="40.205" y1="114.5" x2="58.311" y2="114.5" href="#V"><stop stop-color="#ab750f"/><stop offset=".516" stop-color="#d8a956"/><stop offset="1" stop-color="#ab750f"/></linearGradient><linearGradient id="P" x1="43.477" y1="105.6" x2="55.405" y2="105.6" href="#V"><stop stop-color="#ab750f"/><stop offset=".516" stop-color="#d8a956"/><stop offset="1" stop-color="#ab750f"/></linearGradient><linearGradient id="Q" x1="69.564" y1="81.219" x2="35.491" y2="81.566" href="#V"><stop stop-color="#ab750f"/><stop offset=".238" stop-color="#d8a956"/><stop offset="1" stop-color="#ab750f"/></linearGradient><linearGradient id="R" x1="49.926" y1="74.422" x2="49.926" y2="40.341" href="#V"><stop stop-color="#ab750f"/><stop offset=".516" stop-color="#d8a956"/><stop offset="1" stop-color="#ab750f"/></linearGradient><clipPath id="S"><path fill="#fff" transform="translate(42 100)" d="M0 0h16v16H0z"/></clipPath><clipPath id="T"><path fill="#fff" transform="translate(44 100)" d="M0 0h11.2v11.2H0z"/></clipPath><clipPath id="U"><path fill="#fff" transform="translate(34 41)" d="M0 0h32v32H0z"/></clipPath><linearGradient id="V" gradientUnits="userSpaceOnUse"/></defs></svg>
